src/assets/icons/file-word.svg

<svg height="200" viewBox="0 0 1024 1024" width="200" xmlns="http://www.w3.org/2000/svg"><g fill="#039bff"><path d="m1023.552 309.696a47.36 47.36 0 0 0 -13.632-33.92l-261.696-261.696a47.872 47.872 0 0 0 -33.92-13.632v-.448h-443.2a143.232 143.232 0 0 0 -143.104 143.104v112.896h96v-112.896c0-25.984 21.12-47.104 47.104-47.104h395.2v213.696c0 26.496 21.504 48 48 48h213.696v523.2c0 25.984-21.12 47.104-47.104 47.104h-609.792a47.168 47.168 0 0 1 -47.104-47.104v-32.896h-96v32.896a143.232 143.232 0 0 0 143.104 143.104h609.728a143.296 143.296 0 0 0 143.168-143.104v-571.2zm-261.248-48v-97.792l97.792 97.792z"/><path d="m590.336 530.88h224a32 32 0 0 0 0-64h-224a32 32 0 0 0 0 64zm0 144h224a32 32 0 0 0 0-64h-224a32 32 0 0 0 0 64zm0 144h224a32 32 0 0 0 0-64h-224a32 32 0 0 0 0 64zm-110.336-503.168h-480v480h480zm-102.656 397.632h-95.36l-28.416-137.28a917.952 917.952 0 0 1 -12.288-73.344h-2.112c-3.84 23.744-7.616 49.152-12.288 73.344l-27.584 137.344h-93.632l-57.664-315.392h77.568l19.968 143.68 12.672 100.032h1.664c5.952-33.472 12.288-67.392 18.688-100.032l32.192-143.68h63.552l33.088 143.68c6.336 32.192 11.904 66.112 18.24 100.032h2.112c3.776-33.92 8.064-67.392 11.84-100.032l20.352-143.68h72.064z"/></g></svg>

<svg t="1653717477799" class="icon" viewBox="0 0 1024 1024" version="1.1" xmlns="http://www.w3.org/2000/svg" p-id="4661" width="200" height="200"><path d="M1023.552 309.696a47.36 47.36 0 0 0-13.632-33.92L748.224 14.08a47.872 47.872 0 0 0-33.92-13.632V0H271.104A143.232 143.232 0 0 0 128 143.104V256h96V143.104c0-25.984 21.12-47.104 47.104-47.104h395.2v213.696c0 26.496 21.504 48 48 48H928v523.2c0 25.984-21.12 47.104-47.104 47.104H271.104a47.168 47.168 0 0 1-47.104-47.104v-32.896H128v32.896A143.232 143.232 0 0 0 271.104 1024h609.728A143.296 143.296 0 0 0 1024 880.896V309.696h-0.448z m-261.248-48V163.904l97.792 97.792h-97.792z" fill="#039BFF" p-id="4662"></path><path d="M590.336 530.88h224a32 32 0 0 0 0-64h-224a32 32 0 0 0 0 64zM590.336 674.88h224a32 32 0 0 0 0-64h-224a32 32 0 0 0 0 64zM590.336 818.88h224a32 32 0 0 0 0-64h-224a32 32 0 0 0 0 64zM480 315.712H0v480h480v-480z m-102.656 397.632h-95.36l-28.416-137.28a917.952 917.952 0 0 1-12.288-73.344h-2.112c-3.84 23.744-7.616 49.152-12.288 73.344l-27.584 137.344H105.664L48 398.016h77.568l19.968 143.68 12.672 100.032h1.664c5.952-33.472 12.288-67.392 18.688-100.032l32.192-143.68h63.552l33.088 143.68c6.336 32.192 11.904 66.112 18.24 100.032h2.112c3.776-33.92 8.064-67.392 11.84-100.032l20.352-143.68H432l-54.656 315.328z" fill="#039BFF" p-id="4663"></path></svg>
